!!!COM: Robert Schumann
!!!CNT: Deutscher
!!!TXO: Deutsche 
!!!OTL: Waldesgespra2ch
!!!OPR: Liederkreis
!!!OPS: Opus 39
!!!ONM: No. 3
!!!LYR: Eichendorff
!!!ENC: Brian Bice
!!!YOR: Sa2mtliche Lieder, vol. 1, C.F. Peters
!!!ODT: 1840/
!!NB: Vocal melody and text only encoded.
**kern	**silbe
*clefG2	*
*k[f#c#g#d#]	*
*M3/4	*
=5	=5
4r	.
8r	.
{8e	{"Es
8.f#	ist
16g#	schon
=6	=6
(4g#	spa2t,
4f#)	|
4r	.
=7	=7
4r	.
8r	.
8g#	es
8.e	ist
16g#	schon
=8	=8
(4g#	kalt,
4f#)}	|}
8r	.
{8f#	{was
=9	=9
2g#	reit'st
4g#	du
=10	=10
4.a#	ein-
8a#	-sam
8b#	durch
8cc##	den
=11	=11
4dd#}	Wald?}
8r	.
{8a#	{Der
12b#	Wald
12a#	|
12b#	ist
=12	=12
4cc#	lang,
8r	.
8g#	du
(bnq	bist
12a#	|
12g#)	|
12a#	al-
=13	=13
4bn}	-lein,}
4r	.
{4bn	{du
=14	=14
8.ee	scho2-
16b	-ne
8g#	Braut!
8g#	ich
(16f#	fu2hr'
16e)	|
16r	.
16f#	dich
=15	=15
*k[]	*
2.e}	heim!"}
=17	=17
{2g	{"Gross
8.g	ist
16g	der
=18	=18
2a	Ma2n-
4a	-ner
=19	=19
(4.b	Trug
8bM	|
8a)	|
8b	und
=20	=20
2cc}	List,}
8r	.
{8g	{vor
=21	=21
4g	Schmerz
4r	.
4g	mein
=22	=22
2a	Herz
4a	ge-
=23	=23
(4.b	-bro-
8bM	|
8a)	|
8b	-chen
=24	=24
2cc}	ist,}
4r	.
=25	=25
{4ee	{wohl
4.ee	irrt
8ee	das
=26	=26
4dd#	Wald-
2b	-horn
=27	=27
(4.ddn	her
8ddnM	|
8cc#)	|
8ddn	und
=28	=28
4cc#}	hin,}
4r	.
8r	.
{8cc#	{o
=29	=29
(4cc#	flieh'!
4ccn)	|
8r	.
8b	o
=30	=30
(4b	flieh'!
4.a)	|
8g	du
=31	=31
4.f#	weisst
8f#	nicht,
8f#	wer
8f#	ich
=32	=32
4f#}	bin."}
4r	.
4r	.
=33	=33
*k[f#c#g#d#]	*
4r	.
8r	.
{8e	{"So
8.f#	reich
16g#	ge-
=34	=34
(4g#	-schmu2ckt
4f#)	|
8r	.
8cc#	ist
=35	=35
(4.cc#	Ross
8b	|
8e)	|
8g#	und
=36	=36
(4g#	Weib,
4f#)}	|}
{4B	{so
=37	=37
4.e	wun-
8e	-der-
8.f#	-scho2n,
16g#	so
=38	=38
8.g#	wun-
16f#	-der-
4f#	-scho2n
8r	.
8cc#	der
=39	=39
(4.cc#	jun-
8b	|
8e)	|
8g#	-ge
=40	=40
4g#	leib;
4f#}	|}
8r	.
{8f#	{jetzt
=41	=41
8gn	kenn'
8gn	ich
4gn	dich
4a	Gott
=42	=42
8.b	steh'
16ccn	mir
4.ddn}	bei!}
{8ddn	{du
=43	=43
8.ddn	bist
16gn	die
8gn	He-
8gn	-xe
(12a	Lo-
12gn)	|
12a	-re-
=44	=44
2b}	-ley!"}
4r	.
=46	=46
4r	.
4r	.
8r	.
{8b	{"Du
=47	=47
2b	kennst
4b	mich
=48	=48
2cc#}	wohl,}
8r	.
{8cc#	{du
=49	=49
(4.dd#	kennst
8dd#M	|
8cc#)	|
8dd#	mich
=50	=50
4ee}	wohl,}
8r	.
{8b	{von
8b	ho-
8b	-hem
=51	=51
2b	Stein
4b	schaut
=52	=52
2cc#	still
4cc#}	mein}
=53	=53
{4dd#	{Schloss
4dd#	tief
(eeq	in
dd#q	|
8.cc#)	|
16dd#	den
=54	=54
2ee}	Rhein.}
8r	.
{8ee	{Es
=55	=55
2gg#	ist
4gg#	schon
=56	=56
2ff##	spa2t,
8r	.
8dd#	es
=57	=57
(2ff#	ist
gg#q	|
ff#q	|
8ee#)	|
8ff#	schon
=58	=58
2ee#}	kalt,}
4r	.
=59	=59
4r	.
4r	.
{4een	{kommst
=60	=60
8.ee	nim-
16g#	-mer-
8g#	-mehr
8g#	aus
8f#	die-
8f#	-sem
=61	=61
8e#}	Wald,}
8r	.
{4.b	{nim-
8b	-mer-
=62	=62
4b	-mehr,
4.b	nim-
8b	-mer-
=63	=63
8.b	-mehr
16en	aus
4g#	die-
4f#	-sem
=64	=64
2.e}	Wald."}
*-	*-
